img/file-search.svg

<svg xmlns="http://www.w3.org/2000/svg" width="201.594" height="201.594" viewBox="0 0 201.594 201.594"><path d="M165.309 0H36.289C25.167 0 16.125 9.036 16.125 20.152v161.292c0 11.113 9.042 20.149 20.164 20.149h129.02c11.119 0 20.161-9.036 20.161-20.149V20.152C185.476 9.036 176.434 0 165.309 0zm0 193.538H36.289c-6.67 0-12.096-5.426-12.096-12.094V20.152c0-6.665 5.426-12.09 12.096-12.09h129.02c6.668 0 12.093 5.426 12.093 12.09v161.292h.007c-.001 6.668-5.427 12.094-12.1 12.094zM42.119 35.728a3.701 3.701 0 0 1 3.699-3.711h85.025a3.704 3.704 0 0 1 3.702 3.711 3.703 3.703 0 0 1-3.702 3.705H45.818a3.696 3.696 0 0 1-3.699-3.705zm0 16.879a3.701 3.701 0 0 1 3.699-3.706h85.025a3.703 3.703 0 0 1 3.702 3.706 3.703 3.703 0 0 1-3.702 3.705H45.818a3.7 3.7 0 0 1-3.699-3.705zm0 16.879a3.7 3.7 0 0 1 3.699-3.705h85.025a3.703 3.703 0 0 1 3.702 3.705 3.704 3.704 0 0 1-3.702 3.711H45.818a3.698 3.698 0 0 1-3.699-3.711zm49.916 16.898a3.7 3.7 0 0 1-3.699 3.705H45.824a3.705 3.705 0 0 1-3.705-3.705 3.707 3.707 0 0 1 3.705-3.711h42.512a3.696 3.696 0 0 1 3.699 3.711zm-12.754 33.335c0 2.04-1.65 3.702-3.696 3.702H45.824a3.703 3.703 0 0 1-3.705-3.702 3.7 3.7 0 0 1 3.705-3.708h29.761a3.696 3.696 0 0 1 3.696 3.708zm82.575-18.798c-10.449-18.084-33.667-24.295-51.765-13.864-18.084 10.452-24.313 33.667-13.861 51.733 10.439 18.121 33.651 24.314 51.736 13.877 18.11-10.437 24.333-33.66 13.89-51.746zm-60.182 34.745c-8.729-15.101-3.534-34.464 11.561-43.184 15.089-8.705 34.452-3.51 43.185 11.582 8.707 15.102 3.52 34.452-11.57 43.19-15.115 8.725-34.465 3.514-43.176-11.588zm68.36 36.377l-16.276 9.413-12.55-21.695 16.282-9.42 12.544 21.702zm1.705 2.972c2.605 4.506 1.059 10.26-3.44 12.854-4.5 2.594-10.248 1.066-12.867-3.446l16.307-9.408z" fill="#fff"/></svg>

<?xml version="1.0" encoding="iso-8859-1"?>
<!-- Generator: Adobe Illustrator 16.0.0, SVG Export Plug-In . SVG Version: 6.00 Build 0)  -->
<!DOCTYPE svg PUBLIC "-//W3C//DTD SVG 1.1//EN" "http://www.w3.org/Graphics/SVG/1.1/DTD/svg11.dtd">
<svg version="1.1" id="Capa_1" xmlns="http://www.w3.org/2000/svg" xmlns:xlink="http://www.w3.org/1999/xlink" x="0px" y="0px"
	 width="201.594px" height="201.594px" viewBox="0 0 201.594 201.594" style="enable-background:new 0 0 201.594 201.594;"
	 xml:space="preserve">
<g>
	<path d="M165.309,0H36.289C25.167,0,16.125,9.036,16.125,20.152v161.292c0,11.113,9.042,20.149,20.164,20.149h129.02
		c11.119,0,20.161-9.036,20.161-20.149V20.152C185.476,9.036,176.434,0,165.309,0z M165.309,193.538H36.289
		c-6.67,0-12.096-5.426-12.096-12.094V20.152c0-6.665,5.426-12.09,12.096-12.09h129.02c6.668,0,12.093,5.426,12.093,12.09v161.292
		h0.007C177.408,188.112,171.982,193.538,165.309,193.538z M42.119,35.728c0-2.052,1.653-3.711,3.699-3.711h85.025
		c2.046,0,3.702,1.659,3.702,3.711c0,2.046-1.656,3.705-3.702,3.705H45.818C43.772,39.433,42.119,37.78,42.119,35.728z
		 M42.119,52.607c0-2.046,1.653-3.706,3.699-3.706h85.025c2.046,0,3.702,1.659,3.702,3.706c0,2.046-1.656,3.705-3.702,3.705H45.818
		C43.772,56.312,42.119,54.653,42.119,52.607z M42.119,69.486c0-2.046,1.653-3.705,3.699-3.705h85.025
		c2.046,0,3.702,1.659,3.702,3.705c0,2.052-1.656,3.711-3.702,3.711H45.818C43.772,73.197,42.119,71.544,42.119,69.486z
		 M92.035,86.384c0,2.046-1.653,3.705-3.699,3.705H45.824c-2.046,0-3.705-1.659-3.705-3.705c0-2.052,1.659-3.711,3.705-3.711h42.512
		C90.382,82.672,92.035,84.325,92.035,86.384z M79.281,119.719c0,2.04-1.65,3.702-3.696,3.702H45.824
		c-2.052,0-3.705-1.662-3.705-3.702c0-2.052,1.653-3.708,3.705-3.708h29.761C77.631,116.011,79.281,117.667,79.281,119.719z
		 M161.856,100.921c-10.449-18.084-33.667-24.295-51.765-13.864C92.007,97.509,85.778,120.724,96.23,138.79
		c10.439,18.121,33.651,24.314,51.736,13.877C166.076,142.23,172.299,119.007,161.856,100.921z M101.674,135.666
		c-8.729-15.101-3.534-34.464,11.561-43.184c15.089-8.705,34.452-3.51,43.185,11.582c8.707,15.102,3.52,34.452-11.57,43.19
		C129.735,155.979,110.385,150.768,101.674,135.666z M170.034,172.043l-16.276,9.413l-12.55-21.695l16.282-9.42L170.034,172.043z
		 M171.739,175.015c2.605,4.506,1.059,10.26-3.44,12.854c-4.5,2.594-10.248,1.066-12.867-3.446L171.739,175.015z" fill="#fff"/>
</g>
<g>
</g>
<g>
</g>
<g>
</g>
<g>
</g>
<g>
</g>
<g>
</g>
<g>
</g>
<g>
</g>
<g>
</g>
<g>
</g>
<g>
</g>
<g>
</g>
<g>
</g>
<g>
</g>
<g>
</g>
</svg>
